icons/2_Variations/NotABug.org bg.var.svg

<svg width="1024" height="1024" viewBox="0 0 1024 1024" fill="none" xmlns="http://www.w3.org/2000/svg">
<g clip-path="url(#clip0_3_194)">
<path d="M512 1024C794.77 1024 1024 794.77 1024 512C1024 229.23 794.77 0 512 0C229.23 0 0 229.23 0 512C0 794.77 229.23 1024 512 1024Z" fill="#9ABEFF"/>
<path d="M560 256C560.298 255.089 560.905 254.312 561.716 253.802C562.527 253.293 563.491 253.083 564.44 253.21C565.95 253.57 566.52 255.21 566.85 256.57C572 279.8 573.85 303.92 570.67 327.57C568.95 316.52 567.24 305.47 565.67 294.4C565.05 286.58 563.17 278.95 562.11 271.17C556.69 292.27 550.01 313.38 538.22 331.89C537.06 333.95 535.3 335.83 534.95 338.24C531.457 381.173 527.967 424.093 524.48 467C533.431 470.994 540.493 478.292 544.19 487.37C571.98 458.1 598.19 427.1 620.34 393.37C671.1 383.66 717.26 359.53 764.77 340.28C778.35 353.51 791.65 367.07 803.96 381.51C807.83 386.41 812.27 391.06 814.69 396.9C797.48 380.75 780.53 364.31 763.33 348.13C730.69 361.01 701.64 381.45 668.88 394.13C657.236 398.67 645.203 402.141 632.93 404.5C630.65 405.23 627.59 404.97 626.27 407.35C619.9 416 613.95 425.1 607 433.36C588.42 459.65 567.46 484.16 548.38 510.07C548.38 510.897 548.407 511.737 548.46 512.59C571.82 505.83 594.97 498.39 618.3 491.52C624.03 490.92 629.83 491.38 635.6 491.11C638.87 490.75 641.41 493.21 644.2 494.49C668.29 507.21 695.2 513.24 721.73 518.31C726.97 519.53 732.4 519.95 737.59 521.49C741.04 523.67 744.79 525.76 747.1 529.24C758.61 544.73 769.67 561.51 773.1 580.84C766.63 566.12 757.04 552.99 745.9 541.45C743.66 539.31 741.83 536.45 738.68 535.57C705.68 523.08 670.97 516.44 636.63 508.96C630.5 507.77 624.5 505.81 618.25 505.36C613.48 506.54 609.07 508.74 604.49 510.46C583.31 518.46 562.15 526.52 540.91 534.32C539.17 534.85 539.12 536.98 538.38 538.39C549.58 539.39 560.85 540.04 571.87 542.39C572.76 542.72 574.4 542.65 574.32 544.06C577.68 559.06 585.05 572.82 592.92 585.92C599.23 596.5 606.44 606.5 612.99 616.92C615.04 620.41 617.41 623.92 618.21 627.92L616.82 630.12C624.222 646.758 628.815 664.509 630.41 682.65C630.674 686.324 631.209 689.974 632.01 693.57C631.375 692.743 630.842 691.843 630.42 690.89L630.36 690.07C630.07 685.64 628.59 681.42 627.63 677.07C624 663.9 620.15 650.47 612.71 638.87C611.97 636.93 609.35 637.87 608.37 636.15C600.14 625.98 595.37 613.65 589.37 602.15C581.58 586.88 574.37 571.15 563.94 557.4C553.94 554.21 543.94 551.21 533.94 547.98C533.313 549.327 532.753 550.667 532.26 552C536.35 553.58 540.52 554.94 544.66 556.41C540.66 575.98 537.78 595.74 534.03 615.35C532.03 625.06 530.33 634.9 526.94 644.25C525.94 646.77 524.87 649.68 522.09 650.69C515.54 667.47 508.28 683.96 501.09 700.44C492.41 720.13 483.57 739.77 474.09 759.09C471.7 763.79 469.46 768.61 466.38 772.91C480.38 732.6 497.95 693.6 512.14 653.34C510.14 647.23 512.31 640.88 513.81 634.92C521.2 610.31 532.14 586.92 539.89 562.45C536.23 560.92 532.63 559.28 528.89 558.06C522.22 566.38 518.1 576.45 510.79 584.27C506.44 589.07 502.02 593.93 496.5 597.43C486.95 604.08 476.55 609.36 466.08 614.43C455.48 619.16 444.01 622.84 432.26 622.28C422.9 621.48 413.15 618.02 407.26 610.36C398.1 598.77 394.36 583.98 392.35 569.61C389.41 565.74 386.06 561.98 384.66 557.19C383.033 552.354 382.701 547.176 383.697 542.173C384.694 537.169 386.984 532.513 390.34 528.67C392.13 526.41 394.64 524.92 396.67 522.91C401.368 510.337 408.726 498.927 418.24 489.46C405.75 480.68 394.02 470.53 380.14 463.93C362.42 474.3 346.06 486.75 329.21 498.44C306.92 514.34 283.97 529.96 258.13 539.53C255.81 539.89 255.99 542.38 255.83 544.16C255.16 562.48 253.42 580.73 252.53 599.02C251.85 605.94 252.26 613.02 250.6 619.79C249.67 623.05 247.55 625.79 245.54 628.44C245.14 611.6 246.21 594.77 246.4 577.93C247.59 558.25 247.92 538.43 251.1 518.93C266.33 513.65 281.42 507.93 295.88 500.74C323.7 487.54 348.73 469.4 373.4 451.16C379.84 450.79 386.1 452.8 391.94 455.33C400.35 458.85 407.94 463.88 415.65 468.71C420.35 471.62 424.56 475.35 429.65 477.62C431.32 476.82 432.53 475.31 433.95 474.16C420.86 462.36 406.76 451.65 394.55 438.89C391.9 436.35 389.67 433.37 386.81 431.05C370.14 418.41 353.81 405.17 335.42 395.05C332.96 394.05 330.22 394.21 327.62 393.89C312.91 392.26 298.38 389.37 283.62 387.89C279.36 387.63 275.22 386.34 270.93 386.56C268.845 386.642 266.768 386.258 264.851 385.434C262.934 384.611 261.225 383.369 259.85 381.8C271.85 382.32 283.76 383.93 295.74 384.67C309.33 386.04 323.01 386.67 336.59 388.25C349.59 395.05 361.65 403.38 374.25 410.85C384.48 416.74 394.61 423.05 405.84 426.85C408.162 427.666 410.572 428.203 413.02 428.45C420.8 437.39 427.49 447.45 436.87 454.84C440.711 457.809 443.438 461.988 444.61 466.7C453.75 461.03 464.73 460.16 475.22 459.7C469.57 434.24 463.12 408.95 456.51 383.7C455.85 381.44 453.96 379.85 452.64 377.98C439.51 360.74 431.27 340.53 422.09 321.08C416.126 313.417 410.667 305.373 405.75 297C404.53 294.73 403.12 292.4 403.04 289.75C411.13 298.13 420.52 305.1 428.77 313.32C431.43 315.93 433.14 319.32 435.11 322.41C443.57 336.69 450.73 351.68 459.11 366.01C460.54 368.58 462.41 370.93 463.46 373.71C472.19 402.81 483.15 431.19 492.86 459.98C498.428 460.462 503.967 461.247 509.45 462.33C515.28 420.33 520.04 378.15 526.26 336.19C527.82 330.95 531.17 326.43 533.26 321.37C543.45 300.14 550.71 277.63 560 256ZM406.24 521.08C401.405 522.186 396.959 524.576 393.37 528C383.94 536.57 382.08 552 389.18 562.53C396.18 573.97 412.11 578.53 424.06 572.41C435.73 567.02 442.26 552.79 438.54 540.41C435 526.83 419.94 517.67 406.24 521.08ZM468.24 531.08C463.392 532.185 458.934 534.584 455.34 538.02C445.96 546.6 444.11 561.93 451.18 572.5C458.18 583.94 474.11 588.5 486.06 582.4C497.74 577.01 504.27 562.76 500.54 550.4C497 536.85 481.91 527.69 468.22 531.12L468.24 531.08ZM424.44 531.82C430.64 529.35 437.66 535.89 435.62 542.25C434.23 548.5 425.4 550.84 421.11 546.09C416.59 542 418.53 533.58 424.42 531.85L424.44 531.82ZM429.86 538.15C429.417 538.421 429.06 538.812 428.831 539.277C428.602 539.743 428.509 540.265 428.565 540.781C428.62 541.297 428.821 541.787 429.144 542.193C429.467 542.599 429.899 542.905 430.39 543.076C430.88 543.246 431.409 543.274 431.914 543.155C432.42 543.037 432.881 542.777 433.245 542.407C433.608 542.036 433.859 541.57 433.968 541.063C434.077 540.555 434.04 540.027 433.86 539.54C433.719 539.16 433.494 538.816 433.203 538.534C432.912 538.251 432.562 538.037 432.178 537.907C431.794 537.777 431.386 537.733 430.983 537.781C430.581 537.828 430.193 537.964 429.85 538.18L429.86 538.15ZM485.49 543.69C491.7 541.19 498.75 547.69 496.7 554.09C495.32 560.32 486.56 562.68 482.25 557.99C477.68 553.91 479.58 545.47 485.47 543.73L485.49 543.69ZM490.86 550.06C490.499 550.314 490.204 550.651 490.001 551.042C489.797 551.434 489.691 551.869 489.691 552.31C489.691 552.751 489.797 553.186 490.001 553.578C490.204 553.969 490.499 554.306 490.86 554.56C492.56 555.89 495.16 554.38 495.15 552.31C495.131 551.817 494.981 551.339 494.715 550.924C494.45 550.508 494.079 550.171 493.641 549.946C493.202 549.721 492.712 549.617 492.219 549.644C491.727 549.671 491.251 549.828 490.84 550.1L490.86 550.06Z" fill="white"/>
</g>
<defs>
<clipPath id="clip0_3_194">
<rect width="1024" height="1024" fill="white"/>
</clipPath>
</defs>
</svg>

<svg xmlns="http://www.w3.org/2000/svg" width="1024" height="1024" fill="none">
   <g clip-path="url(#a)">
      <path fill="#9ABEFF" d="M512 1024c282.77 0 512-229.23 512-512S794.77 0 512 0 0 229.23 0 512s229.23 512 512 512Z"/>
      <path fill="#fff" d="M560 256a4.103 4.103 0 0 1 4.44-2.79c1.51.36 2.08 2 2.41 3.36 5.15 23.23 7 47.35 3.82 71-1.72-11.05-3.43-22.1-5-33.17-.62-7.82-2.5-15.45-3.56-23.23-5.42 21.1-12.1 42.21-23.89 60.72-1.16 2.06-2.92 3.94-3.27 6.35-3.493 42.933-6.983 85.853-10.47 128.76a38.001 38.001 0 0 1 19.71 20.37c27.79-29.27 54-60.27 76.15-94 50.76-9.71 96.92-33.84 144.43-53.09 13.58 13.23 26.88 26.79 39.19 41.23 3.87 4.9 8.31 9.55 10.73 15.39-17.21-16.15-34.16-32.59-51.36-48.77-32.64 12.88-61.69 33.32-94.45 46a206.007 206.007 0 0 1-35.95 10.37c-2.28.73-5.34.47-6.66 2.85-6.37 8.65-12.32 17.75-19.27 26.01-18.58 26.29-39.54 50.8-58.62 76.71 0 .827.027 1.667.08 2.52 23.36-6.76 46.51-14.2 69.84-21.07 5.73-.6 11.53-.14 17.3-.41 3.27-.36 5.81 2.1 8.6 3.38 24.09 12.72 51 18.75 77.53 23.82 5.24 1.22 10.67 1.64 15.86 3.18 3.45 2.18 7.2 4.27 9.51 7.75 11.51 15.49 22.57 32.27 26 51.6-6.47-14.72-16.06-27.85-27.2-39.39-2.24-2.14-4.07-5-7.22-5.88-33-12.49-67.71-19.13-102.05-26.61-6.13-1.19-12.13-3.15-18.38-3.6-4.77 1.18-9.18 3.38-13.76 5.1-21.18 8-42.34 16.06-63.58 23.86-1.74.53-1.79 2.66-2.53 4.07 11.2 1 22.47 1.65 33.49 4 .89.33 2.53.26 2.45 1.67 3.36 15 10.73 28.76 18.6 41.86 6.31 10.58 13.52 20.58 20.07 31 2.05 3.49 4.42 7 5.22 11l-1.39 2.2a164.73 164.73 0 0 1 13.59 52.53 74.926 74.926 0 0 0 1.6 10.92 13.126 13.126 0 0 1-1.59-2.68l-.06-.82c-.29-4.43-1.77-8.65-2.73-13-3.63-13.17-7.48-26.6-14.92-38.2-.74-1.94-3.36-1-4.34-2.72-8.23-10.17-13-22.5-19-34-7.79-15.27-15-31-25.43-44.75-10-3.19-20-6.19-30-9.42a53.53 53.53 0 0 0-1.68 4.02c4.09 1.58 8.26 2.94 12.4 4.41-4 19.57-6.88 39.33-10.63 58.94-2 9.71-3.7 19.55-7.09 28.9-1 2.52-2.07 5.43-4.85 6.44-6.55 16.78-13.81 33.27-21 49.75-8.68 19.69-17.52 39.33-27 58.65-2.39 4.7-4.63 9.52-7.71 13.82 14-40.31 31.57-79.31 45.76-119.57-2-6.11.17-12.46 1.67-18.42 7.39-24.61 18.33-48 26.08-72.47-3.66-1.53-7.26-3.17-11-4.39-6.67 8.32-10.79 18.39-18.1 26.21-4.35 4.8-8.77 9.66-14.29 13.16-9.55 6.65-19.95 11.93-30.42 17-10.6 4.73-22.07 8.41-33.82 7.85-9.36-.8-19.11-4.26-25-11.92-9.16-11.59-12.9-26.38-14.91-40.75-2.94-3.87-6.29-7.63-7.69-12.42a29.204 29.204 0 0 1 5.68-28.52c1.79-2.26 4.3-3.75 6.33-5.76a93.22 93.22 0 0 1 21.57-33.45c-12.49-8.78-24.22-18.93-38.1-25.53-17.72 10.37-34.08 22.82-50.93 34.51-22.29 15.9-45.24 31.52-71.08 41.09-2.32.36-2.14 2.85-2.3 4.63-.67 18.32-2.41 36.57-3.3 54.86-.68 6.92-.27 14-1.93 20.77-.93 3.26-3.05 6-5.06 8.65-.4-16.84.67-33.67.86-50.51 1.19-19.68 1.52-39.5 4.7-59 15.23-5.28 30.32-11 44.78-18.19 27.82-13.2 52.85-31.34 77.52-49.58 6.44-.37 12.7 1.64 18.54 4.17 8.41 3.52 16 8.55 23.71 13.38 4.7 2.91 8.91 6.64 14 8.91 1.67-.8 2.88-2.31 4.3-3.46-13.09-11.8-27.19-22.51-39.4-35.27-2.65-2.54-4.88-5.52-7.74-7.84-16.67-12.64-33-25.88-51.39-36-2.46-1-5.2-.84-7.8-1.16-14.71-1.63-29.24-4.52-44-6-4.26-.26-8.4-1.55-12.69-1.33a14 14 0 0 1-11.08-4.76c12 .52 23.91 2.13 35.89 2.87 13.59 1.37 27.27 2 40.85 3.58 13 6.8 25.06 15.13 37.66 22.6 10.23 5.89 20.36 12.2 31.59 16a31.06 31.06 0 0 0 7.18 1.6c7.78 8.94 14.47 19 23.85 26.39a21.57 21.57 0 0 1 7.74 11.86c9.14-5.67 20.12-6.54 30.61-7-5.65-25.46-12.1-50.75-18.71-76-.66-2.26-2.55-3.85-3.87-5.72-13.13-17.24-21.37-37.45-30.55-56.9A223.378 223.378 0 0 1 405.75 297c-1.22-2.27-2.63-4.6-2.71-7.25 8.09 8.38 17.48 15.35 25.73 23.57 2.66 2.61 4.37 6 6.34 9.09 8.46 14.28 15.62 29.27 24 43.6 1.43 2.57 3.3 4.92 4.35 7.7 8.73 29.1 19.69 57.48 29.4 86.27a154.292 154.292 0 0 1 16.59 2.35c5.83-42 10.59-84.18 16.81-126.14 1.56-5.24 4.91-9.76 7-14.82 10.19-21.23 17.45-43.74 26.74-65.37ZM406.24 521.08a27.539 27.539 0 0 0-12.87 6.92c-9.43 8.57-11.29 24-4.19 34.53 7 11.44 22.93 16 34.88 9.88 11.67-5.39 18.2-19.62 14.48-32-3.54-13.58-18.6-22.74-32.3-19.33Zm62 10a27.518 27.518 0 0 0-12.9 6.94c-9.38 8.58-11.23 23.91-4.16 34.48 7 11.44 22.93 16 34.88 9.9 11.68-5.39 18.21-19.64 14.48-32-3.54-13.55-18.63-22.71-32.32-19.28l.02-.04Zm-43.8.74c6.2-2.47 13.22 4.07 11.18 10.43-1.39 6.25-10.22 8.59-14.51 3.84-4.52-4.09-2.58-12.51 3.31-14.24l.02-.03Zm5.42 6.33a2.742 2.742 0 0 0-.716 4.043 2.745 2.745 0 0 0 2.77.962 2.74 2.74 0 0 0 1.946-3.615 2.721 2.721 0 0 0-2.877-1.759 2.72 2.72 0 0 0-1.133.399l.01-.03Zm55.63 5.54c6.21-2.5 13.26 4 11.21 10.4-1.38 6.23-10.14 8.59-14.45 3.9-4.57-4.08-2.67-12.52 3.22-14.26l.02-.04Zm5.37 6.37a2.752 2.752 0 0 0-.859 3.518c.203.391.498.728.859.982 1.7 1.33 4.3-.18 4.29-2.25a2.778 2.778 0 0 0-4.31-2.21l.02-.04Z"/>
   </g>
   <defs>
      <clipPath id="a">
         <path fill="#fff" d="M0 0h1024v1024H0z"/>
      </clipPath>
   </defs>
</svg>
